packages/gestalt-icons-android/vr-theme/ic_vr_clear_gestalt.svg

<svg width="24" height="24" viewBox="0 0 24 24" fill="none" xmlns="http://www.w3.org/2000/svg">
<path d="M16.2929 17.7071L12 13.4142L7.70711 17.7071L6.29289 16.2929L10.5858 12L6.29289 7.70711L7.70711 6.29289L12 10.5858L16.2929 6.29289L17.7071 7.70711L13.4142 12L17.7071 16.2929L16.2929 17.7071Z" fill="black"/>
<path fill-rule="evenodd" clip-rule="evenodd" d="M24 12C24 18.6274 18.6274 24 12 24C5.37258 24 0 18.6274 0 12C0 5.37258 5.37258 0 12 0C18.6274 0 24 5.37258 24 12ZM22 12C22 17.5228 17.5228 22 12 22C6.47715 22 2 17.5228 2 12C2 6.47715 6.47715 2 12 2C17.5228 2 22 6.47715 22 12Z" fill="black"/>
</svg>

<svg xmlns="http://www.w3.org/2000/svg" width="24" height="24"><path d="M16.3 17.7 12 13.42l-4.3 4.3-1.4-1.42 4.28-4.3-4.3-4.3L7.7 6.3l4.3 4.28 4.3-4.3 1.4 1.42-4.28 4.3 4.3 4.3zM24 12a12 12 0 1 1-24 0 12 12 0 0 1 24 0M12 2a10 10 0 1 0 0 20 10 10 0 0 0 0-20"/></svg>
